!!!OTL: Ein alter Ruf, wenn man zu Unser Lieben Frawen kirchfahrten thut.
!!!ARE: Europa, Mitteleuropa, Deutschland
!!!SCT: A0604
!!!TXL: @@DE, (@@LAT)
!!!YEM: Copyright 1995, estate of Helmut Schaffrath.
**kern	**text	**text
*M4/2	*	*
*met(c|)	*	*
*clefC3	*	*
*k[]	*	*
*C:ion	*	*
=1	=1	=1
!LO:TX:a:t=jon.	!	!
1ryy	.	.
2ryy	.	.
{2c	A._Vnd	B._Ʒu
=2	=2	=2
2c	vn-	Eh-
2d	-ſer	-ren
2c	lie-	un-
2B	-ben	-ſer
=3	=3	=3
1A	Frawen	Frawen
2G}	.	.
{2G	der	gehn
=4	=4	=4
2c	trau-	wir
2c	-met	in
2d	ihr	ihr
2f	ein	Bet-
=5	=5	=5
1e	Traum,	-haus;
2r}	.	.
{2d	wie	wen
=6	=6	=6
2e	un-	ſei-
2f	-ter	-ne
2g	ih-	Sünd
2e	-rem	ge-
=7	=7	=7
*lig	*	*
2e	Her-	-rew-
2g	.	.
*Xlig	*	*
2f}	-tʒen	-en,
{2e	ge-	der
=8	=8	=8
2d	-wach-	geht
2c	-ſen	le-
2e	wär	-dig
2c	ein	her-
=9	=9	=9
*lig	*	*
2A	Baum.	-as.
2B	.	.
1c}	.	.
*Xlig	*	*
=10||	=10||	=10||
{2A	Ky-	.
4A	-rie	.
4A	e-	.
1B	-lei-	.
=11	=11	=11
0c\ll}	-ſon!	.
==	==	==
!!!GTL: Geistliche Volkslieder
!!!AGN: Romanze, Ballade, Lied, religioeses Lied
!! Beuttner 1602 No. 30
!!!ONB: ESAC (Essen Associative Code) Database: ALTDEU
!!!AMT: simple quadruple
!!!AIN: vox
!!!EED: Helmut Schaffrath
!!!EEV: 1.0
!!!RDF**kern: l = terminal long
!!!AMD: Ionian
!!!URL-scan: https://rosdok.uni-rostock.de/mcrviewer/recordIdentifier/rosdok_ppn738218359/iview2/phys_0786.iview2?x=201.48295004982492&y=1477.5679958765395&scale=0.7052832894250849&rotation=0&layout=singlePageLayout&logicalDiv=log_0021
!!!ENC: Anna Maria Matuszewska
!!!EEV: 2024/22/03
*-	*-	*-
